assets/img/home-heading02.svg

<svg fill="none" height="213" viewBox="0 0 1203 213" width="1203" xmlns="http://www.w3.org/2000/svg"><g fill="#96ff94"><path d="m22.2223 94.1187h32.5405l13.728-64.9534h.2542l5.3387 64.9534h27.2013l32.795-64.9534h.254l-13.728 64.9534h32.541l19.321-90.93471h-50.463l-26.0582 52.85421h-.2543l-3.6862-52.85421h-50.4631z"/><path d="m248.73 61.5147h-21.609l17.288-30.821h.254zm-78.3 32.604h38.133l5.974-10.4435h37.371l1.653 10.4435h38.133l-19.321-90.93471h-43.98z"/><path d="m377.074 61.642c4.703.7642 5.72 3.4387 5.211 6.1133-.889 4.3302-4.576 7.3869-15.761 7.3869-5.593 0-9.407-.6368-11.822-1.9104-2.288-1.401-2.923-3.4387-2.415-6.4954h-43.218c-5.592 26.7455 23.77 30.5663 51.353 30.5663 40.295 0 60.505-10.4435 65.208-32.604 3.305-15.4105-6.101-23.8163-23.642-26.4908l-41.439-6.368c-3.432-.5094-4.194-2.1651-3.686-4.7123.763-3.8208 5.085-6.4953 15.762-6.4953 3.94 0 7.881.5094 10.677 1.9103 3.051 1.2736 4.831 3.5661 3.941 7.2595h41.692c2.797-19.2313-11.567-29.8021-51.988-29.8021-29.49 0-53.895 6.36798-58.853 29.9295-2.669 12.736 2.415 22.9247 19.321 25.5993z"/><path d="m448.754 48.6514c-10.042 47.123 29.998 48.6513 51.734 48.6513s62.284-1.5283 72.326-48.6513c10.042-47.12309-29.998-48.6514-51.734-48.6514s-62.285 1.52831-72.326 48.6514zm38.133 0c3.94-18.4672 14.745-25.7267 29.363-25.7267 14.617 0 22.371 7.2595 18.431 25.7267-3.941 18.4671-14.745 25.7266-29.363 25.7266s-22.372-7.2595-18.431-25.7266z"/><path d="m588.587 94.1187h34.32l10.804-50.9438h.254l27.329 50.9438h39.278l19.321-90.93471h-34.32l-10.678 50.43441h-.381l-25.677-50.43441h-40.929z"/><path d="m798.899 61.642c4.703.7642 5.72 3.4387 5.212 6.1133-.89 4.3302-4.576 7.3869-15.762 7.3869-5.593 0-9.406-.6368-11.821-1.9104-2.288-1.401-2.924-3.4387-2.416-6.4954h-43.217c-5.593 26.7455 23.769 30.5663 51.353 30.5663 40.294 0 60.504-10.4435 65.208-32.604 3.304-15.4105-6.102-23.8163-23.643-26.4908l-41.438-6.368c-3.432-.5094-4.195-2.1651-3.687-4.7123.763-3.8208 5.085-6.4953 15.762-6.4953 3.941 0 7.881.5094 10.678 1.9103 3.05 1.2736 4.83 3.5661 3.94 7.2595h41.692c2.797-19.2313-11.567-29.8021-51.988-29.8021-29.49 0-53.895 6.36798-58.853 29.9295-2.669 12.736 2.416 22.9247 19.321 25.5993z"/><path d="m935.177 48.6514c-10.042 47.123 29.998 48.6513 51.734 48.6513 21.739 0 62.289-1.5283 72.329-48.6513 10.04-47.12309-30-48.6514-51.74-48.6514-21.733 0-62.281 1.52831-72.323 48.6514zm38.133 0c3.941-18.4672 14.745-25.7267 29.36-25.7267 14.62 0 22.37 7.2595 18.43 25.7267-3.94 18.4671-14.74 25.7266-29.358 25.7266s-22.372-7.2595-18.432-25.7266z"/><path d="m1075.01 94.1187h35.85l6.99-32.7314h51.6l4.71-22.1606h-51.61l2.92-13.8821h56.06l4.7-22.16061h-91.9z"/><path d="m0 211.112h21.2571l4.1459-19.411h30.6042l2.7891-13.141h-30.6042l1.7337-8.233h33.2425l2.7891-13.142h-54.4997z"/><path d="m70.3971 184.149c-5.955 27.945 17.7897 28.851 30.6799 28.851 12.89 0 36.936-.906 42.891-28.851s-17.79-28.852-30.68-28.852-36.9359.907-42.8909 28.852zm22.614 0c2.3368-10.952 8.7439-15.257 17.4129-15.257s13.267 4.305 10.93 15.257c-2.337 10.951-8.744 15.256-17.413 15.256-8.6685 0-13.2667-4.305-10.9299-15.256z"/><path d="m153.321 211.112h21.258l3.542-16.616h15.076c3.92 0 4.749 2.417 4.146 6.42-.98 6.268-1.507 8.61-1.055 10.196h23.217c-.98-1.662-1.583-3.928-1.282-6.344l1.583-11.783c.604-4.682-1.356-7.401-4.372-8.308l.076-.151c6.558-1.812 9.799-7.25 10.855-12.311 1.281-5.891-.905-11.102-4.523-13.066-2.639-1.435-6.181-1.964-12.287-1.964h-44.776zm29.851-40.332h14.774c3.543 0 5.955.982 5.051 5.061-.679 3.398-2.789 5.06-6.935 5.06h-15.076z"/><path d="m233.368 211.112h19.298l8.141-38.519h.15l3.166 38.519h16.132l19.448-38.519h.15l-8.141 38.519h19.298l11.457-53.927h-29.925l-15.453 31.344h-.151l-2.186-31.344h-29.926z"/><path d="m406.001 191.777h-12.814l10.251-18.278h.151zm-46.434 19.335h22.614l3.543-6.193h22.162l.98 6.193h22.614l-11.458-53.927h-26.082z"/><path d="m441.708 211.112h20.353l6.407-30.211h.151l16.207 30.211h23.292l11.458-53.927h-20.353l-6.332 29.909h-.226l-15.227-29.909h-24.272z"/><path d="m555.875 170.78h12.212c9.724 0 12.588 4.834 10.779 13.369-1.809 8.534-6.784 13.368-16.508 13.368h-12.212zm-29.85 40.332h41.836c17.865 0 29.172-8.006 33.167-26.963 4.221-19.864-3.92-26.964-22.162-26.964h-41.384z"/><path d="m662.821 211.112h21.257l8.593-40.332h19.674l2.865-13.595h-60.606l-2.864 13.595h19.674z"/><path d="m761.335 211.112h21.257l11.458-53.927h-21.258l-3.995 18.807h-23.895l3.995-18.807h-21.257l-11.458 53.927h21.257l4.598-21.525h23.896z"/><path d="m803.363 184.149c-5.955 27.945 17.79 28.851 30.68 28.851s36.936-.906 42.891-28.851-17.79-28.852-30.68-28.852-36.936.907-42.891 28.852zm22.614 0c2.337-10.952 8.744-15.257 17.413-15.257 8.668 0 13.267 4.305 10.93 15.257-2.337 10.951-8.744 15.256-17.413 15.256s-13.267-4.305-10.93-15.256z"/><path d="m889.529 190.644c-3.694 17.145 5.578 22.356 27.438 22.356s33.243-5.211 36.936-22.356l7.086-33.459h-21.257l-6.935 32.628c-1.508 6.949-5.955 9.139-12.89 9.139s-10.478-2.19-8.97-9.139l6.935-32.628h-21.257z"/><path d="m1008.55 192.608h8.74c-2.34 4.078-6.41 6.797-13.34 6.797-10.554 0-14.7-5.287-12.59-15.256 2.337-10.952 8.74-15.257 17.41-15.257 2.79 0 5.13.302 6.94 1.284 1.73.982 3.01 2.719 3.01 5.514h23.97c1.29-13.897-8.59-20.393-32.26-20.393-16.28 0-36.256 5.438-41.307 29.078-5.276 24.924 14.247 28.625 29.172 28.625 12.215 0 19.525-1.888 26.085-6.797l1.35 4.909h9.12l6.56-30.74h-30.22z"/><path d="m1097.28 211.112h21.25l11.46-53.927h-21.26l-3.99 18.807h-23.9l4-18.807h-21.26l-11.46 53.927h21.26l4.6-21.525h23.89z"/><path d="m1150.61 211.112h21.26l8.59-40.332h19.68l2.86-13.595h-60.61l-2.86 13.595h19.67z"/></g></svg>

<svg width="1203" height="213" viewBox="0 0 1203 213" fill="none" xmlns="http://www.w3.org/2000/svg">
<g>
<path d="M22.2223 94.1187H54.7628L68.4908 29.1653H68.745L74.0837 94.1187H101.285L134.08 29.1653H134.334L120.606 94.1187H153.147L172.468 3.18399H122.005L95.9468 56.0382H95.6925L92.0063 3.18399H41.5432L22.2223 94.1187Z" fill="#96FF94"/>
<path d="M248.73 61.5147H227.121L244.409 30.6937H244.663L248.73 61.5147ZM170.43 94.1187H208.563L214.537 83.6752H251.908L253.561 94.1187H291.694L272.373 3.18399H228.393L170.43 94.1187Z" fill="#96FF94"/>
<path d="M377.074 61.642C381.777 62.4062 382.794 65.0807 382.285 67.7553C381.396 72.0855 377.709 75.1422 366.524 75.1422C360.931 75.1422 357.117 74.5054 354.702 73.2318C352.414 71.8308 351.779 69.7931 352.287 66.7364H309.069C303.477 93.4819 332.839 97.3027 360.422 97.3027C400.717 97.3027 420.927 86.8592 425.63 64.6987C428.935 49.2882 419.529 40.8824 401.988 38.2079L360.549 31.8399C357.117 31.3305 356.355 29.6748 356.863 27.1276C357.626 23.3068 361.948 20.6323 372.625 20.6323C376.565 20.6323 380.506 21.1417 383.302 22.5426C386.353 23.8162 388.133 26.1087 387.243 29.8021H428.935C431.732 10.5708 417.368 0 376.947 0C347.457 0 323.052 6.36798 318.094 29.9295C315.425 42.6655 320.509 52.8542 337.415 55.5288L377.074 61.642Z" fill="#96FF94"/>
<path d="M448.754 48.6514C438.712 95.7744 478.752 97.3027 500.488 97.3027C522.224 97.3027 562.772 95.7744 572.814 48.6514C582.856 1.52831 542.816 0 521.08 0C499.344 0 458.795 1.52831 448.754 48.6514ZM486.887 48.6514C490.827 30.1842 501.632 22.9247 516.25 22.9247C530.867 22.9247 538.621 30.1842 534.681 48.6514C530.74 67.1185 519.936 74.378 505.318 74.378C490.7 74.378 482.946 67.1185 486.887 48.6514Z" fill="#96FF94"/>
<path d="M588.587 94.1187H622.907L633.711 43.1749H633.965L661.294 94.1187H700.572L719.893 3.18399H685.573L674.895 53.6184H674.514L648.837 3.18399H607.908L588.587 94.1187Z" fill="#96FF94"/>
<path d="M798.899 61.642C803.602 62.4062 804.619 65.0807 804.111 67.7553C803.221 72.0855 799.535 75.1422 788.349 75.1422C782.756 75.1422 778.943 74.5054 776.528 73.2318C774.24 71.8308 773.604 69.7931 774.112 66.7364H730.895C725.302 93.4819 754.664 97.3027 782.248 97.3027C822.542 97.3027 842.752 86.8592 847.456 64.6987C850.76 49.2882 841.354 40.8824 823.813 38.2079L782.375 31.8399C778.943 31.3305 778.18 29.6748 778.688 27.1276C779.451 23.3068 783.773 20.6323 794.45 20.6323C798.391 20.6323 802.331 21.1417 805.128 22.5426C808.178 23.8162 809.958 26.1087 809.068 29.8021H850.76C853.557 10.5708 839.193 0 798.772 0C769.282 0 744.877 6.36798 739.919 29.9295C737.25 42.6655 742.335 52.8542 759.24 55.5288L798.899 61.642Z" fill="#96FF94"/>
<path d="M935.177 48.6514C925.135 95.7744 965.175 97.3027 986.911 97.3027C1008.65 97.3027 1049.2 95.7744 1059.24 48.6514C1069.28 1.52831 1029.24 0 1007.5 0C985.767 0 945.219 1.52831 935.177 48.6514ZM973.31 48.6514C977.251 30.1842 988.055 22.9247 1002.67 22.9247C1017.29 22.9247 1025.04 30.1842 1021.1 48.6514C1017.16 67.1185 1006.36 74.378 991.742 74.378C977.124 74.378 969.37 67.1185 973.31 48.6514Z" fill="#96FF94"/>
<path d="M1075.01 94.1187H1110.86L1117.85 61.3873H1169.45L1174.16 39.2267H1122.55L1125.47 25.3446H1181.53L1186.23 3.18399H1094.33L1075.01 94.1187Z" fill="#96FF94"/>
<path d="M0 211.112H21.2571L25.403 191.701H56.0072L58.7963 178.56H28.1921L29.9258 170.327H63.1683L65.9574 157.185H11.4577L0 211.112Z" fill="#96FF94"/>
<path d="M70.3971 184.149C64.4421 212.094 88.1868 213 101.077 213C113.967 213 138.013 212.094 143.968 184.149C149.923 156.204 126.178 155.297 113.288 155.297C100.398 155.297 76.3521 156.204 70.3971 184.149ZM93.0111 184.149C95.3479 173.197 101.755 168.892 110.424 168.892C119.093 168.892 123.691 173.197 121.354 184.149C119.017 195.1 112.61 199.405 103.941 199.405C95.2725 199.405 90.6743 195.1 93.0111 184.149Z" fill="#96FF94"/>
<path d="M153.321 211.112H174.579L178.121 194.496H193.197C197.117 194.496 197.946 196.913 197.343 200.916C196.363 207.184 195.836 209.526 196.288 211.112H219.505C218.525 209.45 217.922 207.184 218.223 204.768L219.806 192.985C220.41 188.303 218.45 185.584 215.434 184.677L215.51 184.526C222.068 182.714 225.309 177.276 226.365 172.215C227.646 166.324 225.46 161.113 221.842 159.149C219.203 157.714 215.661 157.185 209.555 157.185H164.779L153.321 211.112ZM183.172 170.78H197.946C201.489 170.78 203.901 171.762 202.997 175.841C202.318 179.239 200.208 180.901 196.062 180.901H180.986L183.172 170.78Z" fill="#96FF94"/>
<path d="M233.368 211.112H252.666L260.807 172.593H260.957L264.123 211.112H280.255L299.703 172.593H299.853L291.712 211.112H311.01L322.467 157.185H292.542L277.089 188.529H276.938L274.752 157.185H244.826L233.368 211.112Z" fill="#96FF94"/>
<path d="M406.001 191.777H393.187L403.438 173.499H403.589L406.001 191.777ZM359.567 211.112H382.181L385.724 204.919H407.886L408.866 211.112H431.48L420.022 157.185H393.94L359.567 211.112Z" fill="#96FF94"/>
<path d="M441.708 211.112H462.061L468.468 180.901H468.619L484.826 211.112H508.118L519.576 157.185H499.223L492.891 187.094H492.665L477.438 157.185H453.166L441.708 211.112Z" fill="#96FF94"/>
<path d="M555.875 170.78H568.087C577.811 170.78 580.675 175.614 578.866 184.149C577.057 192.683 572.082 197.517 562.358 197.517H550.146L555.875 170.78ZM526.025 211.112H567.861C585.726 211.112 597.033 203.106 601.028 184.149C605.249 164.285 597.108 157.185 578.866 157.185H537.482L526.025 211.112Z" fill="#96FF94"/>
<path d="M662.821 211.112H684.078L692.671 170.78H712.345L715.21 157.185H654.604L651.74 170.78H671.414L662.821 211.112Z" fill="#96FF94"/>
<path d="M761.335 211.112H782.592L794.05 157.185H772.792L768.797 175.992H744.902L748.897 157.185H727.64L716.182 211.112H737.439L742.037 189.587H765.933L761.335 211.112Z" fill="#96FF94"/>
<path d="M803.363 184.149C797.408 212.094 821.153 213 834.043 213C846.933 213 870.979 212.094 876.934 184.149C882.889 156.204 859.144 155.297 846.254 155.297C833.364 155.297 809.318 156.204 803.363 184.149ZM825.977 184.149C828.314 173.197 834.721 168.892 843.39 168.892C852.058 168.892 856.657 173.197 854.32 184.149C851.983 195.1 845.576 199.405 836.907 199.405C828.238 199.405 823.64 195.1 825.977 184.149Z" fill="#96FF94"/>
<path d="M889.529 190.644C885.835 207.789 895.107 213 916.967 213C938.827 213 950.21 207.789 953.903 190.644L960.989 157.185H939.732L932.797 189.813C931.289 196.762 926.842 198.952 919.907 198.952C912.972 198.952 909.429 196.762 910.937 189.813L917.872 157.185H896.615L889.529 190.644Z" fill="#96FF94"/>
<path d="M1008.55 192.608H1017.29C1014.95 196.686 1010.88 199.405 1003.95 199.405C993.396 199.405 989.25 194.118 991.36 184.149C993.697 173.197 1000.1 168.892 1008.77 168.892C1011.56 168.892 1013.9 169.194 1015.71 170.176C1017.44 171.158 1018.72 172.895 1018.72 175.69H1042.69C1043.98 161.793 1034.1 155.297 1010.43 155.297C994.15 155.297 974.174 160.735 969.123 184.375C963.847 209.299 983.37 213 998.295 213C1010.51 213 1017.82 211.112 1024.38 206.203L1025.73 211.112H1034.85L1041.41 180.372H1011.19L1008.55 192.608Z" fill="#96FF94"/>
<path d="M1097.28 211.112H1118.53L1129.99 157.185H1108.73L1104.74 175.992H1080.84L1084.84 157.185H1063.58L1052.12 211.112H1073.38L1077.98 189.587H1101.87L1097.28 211.112Z" fill="#96FF94"/>
<path d="M1150.61 211.112H1171.87L1180.46 170.78H1200.14L1203 157.185H1142.39L1139.53 170.78H1159.2L1150.61 211.112Z" fill="#96FF94"/>
</g>
<defs>
<filter id="filter0_b" x="-250" y="-250" width="1703" height="713" filterUnits="userSpaceOnUse" color-interpolation-filters="sRGB">
<feFlood flood-opacity="0" result="BackgroundImageFix"/>
<feGaussianBlur in="BackgroundImage" stdDeviation="125"/>
<feComposite in2="SourceAlpha" operator="in" result="effect1_backgroundBlur"/>
<feBlend mode="normal" in="SourceGraphic" in2="effect1_backgroundBlur" result="shape"/>
</filter>
</defs>
</svg>
